X:462
T: FRAU NACHTIGALL KLEINS VOEGELEIN
N: E0413A
O: Europa, Mitteleuropa, Deutschland, Siebengebirge
R: Liebes - Lied
M: 3/4
L: 1/16
K: F
F2 | A2AGF6F2 | A2AGF2
F2E2F2 | G4c2B2A2B2 | c4z2
c2c2de | f4c2c2B2A2 | G6
F2F2A2 | c4G4c2cB | A8z2

@@@ Tune index: 4112
